packages/hms_room_kit/lib/src/assets/icons/brb.svg

<svg width="20" height="12" viewBox="0 0 20 12" fill="none" xmlns="http://www.w3.org/2000/svg">
<path d="M0.375 11.5V0.5H2.80251C3.33471 0.5 3.78546 0.577247 4.15474 0.731741C4.53489 0.886236 4.84444 1.09223 5.08338 1.34972C5.32233 1.60721 5.49068 1.9059 5.58844 2.24579C5.69705 2.57537 5.75136 2.92041 5.75136 3.2809V3.68258C5.75136 3.98127 5.7242 4.23361 5.6699 4.43961C5.62645 4.6456 5.55585 4.82584 5.4581 4.98034C5.27346 5.26873 4.99106 5.51592 4.61092 5.72191C5.00192 5.897 5.28975 6.15449 5.47439 6.49438C5.65903 6.83427 5.75136 7.29775 5.75136 7.88483V8.50281C5.75136 9.47097 5.50155 10.2125 5.00192 10.7275C4.51316 11.2425 3.72572 11.5 2.63959 11.5H0.375ZM2.03678 6.40168V9.92416H2.75363C3.09033 9.92416 3.351 9.87781 3.53565 9.78511C3.73115 9.69242 3.87778 9.56367 3.97553 9.39888C4.07328 9.23408 4.13302 9.03839 4.15474 8.8118C4.17646 8.58521 4.18733 8.33801 4.18733 8.07022C4.18733 7.79213 4.17103 7.55009 4.13845 7.3441C4.10587 7.13811 4.0407 6.96301 3.94295 6.81882C3.83433 6.67462 3.6877 6.57163 3.50306 6.50983C3.31842 6.43773 3.07404 6.40168 2.76992 6.40168H2.03678ZM2.03678 1.98315V5.01124H2.78621C3.34014 5.01124 3.70943 4.88249 3.89407 4.625C4.08957 4.35721 4.18733 3.97097 4.18733 3.46629C4.18733 2.97191 4.07871 2.60112 3.86149 2.35393C3.65512 2.10674 3.27497 1.98315 2.72105 1.98315H2.03678Z" fill="white"/>
<path d="M8.97361 1.98315V5.41292H9.91854C10.2118 5.41292 10.4453 5.37687 10.6191 5.30477C10.7929 5.22238 10.9286 5.10908 11.0264 4.96489C11.1133 4.82069 11.173 4.6456 11.2056 4.43961C11.2382 4.22331 11.2545 3.97612 11.2545 3.69803C11.2545 3.41994 11.2382 3.1779 11.2056 2.97191C11.173 2.75562 11.1079 2.57022 11.0101 2.41573C10.8037 2.12734 10.4127 1.98315 9.83708 1.98315H8.97361ZM7.31182 11.5V0.5H9.98371C11.9387 0.5 12.9163 1.57631 12.9163 3.72893C12.9163 4.37781 12.8077 4.92884 12.5904 5.38202C12.3841 5.83521 12.0148 6.20084 11.4826 6.47893L13.2747 11.5H11.5152L9.96742 6.80337H8.97361V11.5H7.31182Z" fill="white"/>
<path d="M14.2486 11.5V0.5H16.6762C17.2084 0.5 17.6591 0.577247 18.0284 0.731741C18.4085 0.886236 18.7181 1.09223 18.957 1.34972C19.196 1.60721 19.3643 1.9059 19.4621 2.24579C19.5707 2.57537 19.625 2.92041 19.625 3.2809V3.68258C19.625 3.98127 19.5978 4.23361 19.5435 4.43961C19.5001 4.6456 19.4295 4.82584 19.3317 4.98034C19.1471 5.26873 18.8647 5.51592 18.4846 5.72191C18.8756 5.897 19.1634 6.15449 19.348 6.49438C19.5327 6.83427 19.625 7.29775 19.625 7.88483V8.50281C19.625 9.47097 19.3752 10.2125 18.8756 10.7275C18.3868 11.2425 17.5994 11.5 16.5132 11.5H14.2486ZM15.9104 6.40168V9.92416H16.6273C16.964 9.92416 17.2246 9.87781 17.4093 9.78511C17.6048 9.69242 17.7514 9.56367 17.8492 9.39888C17.9469 9.23408 18.0067 9.03839 18.0284 8.8118C18.0501 8.58521 18.061 8.33801 18.061 8.07022C18.061 7.79213 18.0447 7.55009 18.0121 7.3441C17.9795 7.13811 17.9143 6.96301 17.8166 6.81882C17.708 6.67462 17.5613 6.57163 17.3767 6.50983C17.1921 6.43773 16.9477 6.40168 16.6436 6.40168H15.9104ZM15.9104 1.98315V5.01124H16.6599C17.2138 5.01124 17.5831 4.88249 17.7677 4.625C17.9632 4.35721 18.061 3.97097 18.061 3.46629C18.061 2.97191 17.9524 2.60112 17.7351 2.35393C17.5288 2.10674 17.1486 1.98315 16.5947 1.98315H15.9104Z" fill="white"/>
</svg>

<svg xmlns="http://www.w3.org/2000/svg" width="20" height="12" fill="none" viewBox="0 0 20 12"><path fill="#fff" d="M.375 11.5V.5h2.428c.532 0 .982.077 1.352.232.38.154.69.36.928.618.24.257.408.556.505.896.109.33.163.674.163 1.035v.402c0 .298-.027.55-.081.757a1.632 1.632 0 0 1-.212.54c-.185.289-.467.536-.847.742.39.175.679.432.863.772.185.34.277.804.277 1.39v.619c0 .968-.25 1.71-.75 2.224-.488.515-1.275.773-2.361.773H.375Zm1.662-5.098v3.522h.717c.336 0 .597-.046.782-.139a.984.984 0 0 0 .44-.386c.097-.165.157-.36.179-.587.021-.227.032-.474.032-.742 0-.278-.016-.52-.049-.726a1.28 1.28 0 0 0-.195-.525.887.887 0 0 0-.44-.31c-.185-.071-.429-.107-.733-.107h-.733Zm0-4.419v3.028h.75c.553 0 .922-.129 1.107-.386.196-.268.293-.654.293-1.159 0-.494-.108-.865-.326-1.112-.206-.247-.586-.37-1.14-.37h-.684Zm6.937 0v3.43h.945c.293 0 .526-.036.7-.108a.993.993 0 0 0 .407-.34c.087-.144.147-.32.18-.525a5.02 5.02 0 0 0 .049-.742c0-.278-.017-.52-.05-.726a1.425 1.425 0 0 0-.195-.556c-.206-.289-.597-.433-1.173-.433h-.863ZM7.312 11.5V.5h2.672c1.955 0 2.932 1.076 2.932 3.229 0 .649-.108 1.2-.326 1.653-.206.453-.575.819-1.107 1.097l1.792 5.021h-1.76L9.967 6.803h-.993V11.5H7.312Zm6.937 0V.5h2.427c.532 0 .983.077 1.352.232.38.154.69.36.929.618.239.257.407.556.505.896.109.33.163.674.163 1.035v.402c0 .298-.027.55-.081.757a1.63 1.63 0 0 1-.212.54c-.185.289-.467.536-.847.742.39.175.678.432.863.772.185.34.277.804.277 1.39v.619c0 .968-.25 1.71-.75 2.224-.488.515-1.276.773-2.362.773H14.25Zm1.661-5.098v3.522h.717c.337 0 .598-.046.782-.139a.984.984 0 0 0 .44-.386c.098-.165.158-.36.18-.587.021-.227.032-.474.032-.742 0-.278-.016-.52-.049-.726a1.28 1.28 0 0 0-.195-.525.887.887 0 0 0-.44-.31c-.185-.071-.43-.107-.733-.107h-.734Zm0-4.419v3.028h.75c.554 0 .923-.129 1.108-.386.195-.268.293-.654.293-1.159 0-.494-.109-.865-.326-1.112-.206-.247-.586-.37-1.14-.37h-.685Z"/></svg>
